X: 34604
T: Riverside
R: jig
M: 6/8
K: Amajor
|:F|EAc ecA|fef ecA|{b}agf fcA|BGB dcB|
EAc ecA|fdf ecA|{b}agf ebg|a3 a2:|
c'|:e'c'a eac'|bge egb|agf eaf|
[1 bge eac'|e'c'a eac'|bge egb|agf ebg|a3 a2 c':|
[2 ecA GFE|A,CE Ace|fga efg|aga fbg|a3 a2||

